assets/frame00.svg

<svg xmlns="http://www.w3.org/2000/svg" width="48" height="48"><path fill="none" d="M29.939 18.396C27.169 19.582 24 21.489 24 24c0-2.511-3.169-4.418-5.939-5.604-2.398-1.028-5.143-.011-5.721 2.537-.203.892-.34 1.919-.34 3.067 0 1.148.137 2.175.34 3.067.578 2.548 3.323 3.565 5.721 2.537C20.831 28.418 24 26.511 24 24c0 2.511 3.169 4.418 5.939 5.604 2.398 1.028 5.143.011 5.722-2.537.202-.892.339-1.919.339-3.067 0-1.148-.137-2.175-.34-3.067-.578-2.548-3.323-3.565-5.721-2.537Z"/><path fill="none" d="M29.316 22.949a1.001 1.001 0 0 0-.632-1.898l-3 1A1.001 1.001 0 0 0 25.977 24a1 1 0 0 0-.293 1.949l3 1a1.001 1.001 0 0 0 .632-1.898l-3-1a1.003 1.003 0 0 0-.293-.051c.097-.002.196-.019.293-.051l3-1Zm-11.265-1.265c-.174.524.109 1.09.633 1.265l3 1c.097.032.196.049.293.051a1.003 1.003 0 0 0-.293.051l-3 1a1.001 1.001 0 0 0 .632 1.898l3-1A1.001 1.001 0 0 0 22.023 24a1 1 0 0 0 .293-1.949l-3-1a1.001 1.001 0 0 0-1.265.633Z"/><path fill="#c8e6ff" d="M24 20a4.001 4.001 0 0 0-2.828 6.828 4.001 4.001 0 0 0 5.657 0 4.003 4.003 0 0 0 0-5.656A4.002 4.002 0 0 0 24 20Z"/><path fill="#006590" d="M24 12a12.004 12.004 0 0 0-12 12 12.004 12.004 0 0 0 12 12 12.004 12.004 0 0 0 12-12 12.004 12.004 0 0 0-12-12Z"/></svg>

<svg
    xmlns="http://www.w3.org/2000/svg"
    viewBox="0 0 48 48"
    id="bowtie"
    width="48px"
    height="48px">
    <g id="rotation">
        <path
            id="bow"
            d="M 29.939 18.396 C 27.169 19.582 24 21.489 24 24 C 24 21.489 20.831 19.582 18.061 18.396 C 15.663 17.369 12.918 18.385 12.34 20.933 C 12.137 21.825 12 22.852 12 24 C 12 25.148 12.137 26.175 12.34 27.067 C 12.918 29.615 15.663 30.631 18.061 29.604 C 20.831 28.418 24 26.511 24 24 C 24 26.511 27.169 28.418 29.939 29.604 C 32.337 30.631 35.082 29.615 35.66 27.067 C 35.863 26.175 36 25.148 36 24 C 36 22.852 35.863 21.825 35.66 20.933 C 35.082 18.385 32.337 17.369 29.939 18.396 Z"
            fill="#55b4ed"
            fill-opacity="0"
            stroke-width="1"/>
        <path
            id="shadow"
            d="M 29.316 22.949 C 29.84 22.774 30.123 22.208 29.948 21.684 C 29.774 21.16 29.207 20.877 28.684 21.051 L 25.684 22.051 C 25.16 22.226 24.877 22.792 25.051 23.316 C 25.188 23.727 25.567 23.99 25.977 24 C 25.567 24.01 25.188 24.273 25.051 24.684 C 24.877 25.208 25.16 25.774 25.684 25.949 L 28.684 26.949 C 29.207 27.123 29.774 26.84 29.948 26.316 C 30.123 25.792 29.84 25.226 29.316 25.051 L 26.316 24.051 C 26.219 24.019 26.12 24.002 26.023 24 C 26.12 23.998 26.219 23.981 26.316 23.949 L 29.316 22.949 Z M 18.051 21.684 C 17.877 22.208 18.16 22.774 18.684 22.949 L 21.684 23.949 C 21.781 23.981 21.879 23.998 21.977 24 C 21.879 24.002 21.781 24.019 21.684 24.051 L 18.684 25.051 C 18.16 25.226 17.877 25.792 18.051 26.316 C 18.226 26.84 18.792 27.123 19.316 26.949 L 22.316 25.949 C 22.84 25.774 23.123 25.208 22.948 24.684 C 22.811 24.273 22.433 24.01 22.023 24 C 22.433 23.99 22.811 23.727 22.948 23.316 C 23.123 22.792 22.84 22.226 22.316 22.051 L 19.316 21.051 C 18.792 20.877 18.226 21.16 18.051 21.684 Z"
            fill="#007fb4"
            fill-opacity="0"
            stroke-width="1"/>
        <g
            id="dot_scale"
            transform="translate(24 24) scale(3 3) translate(-24 -24)">
            <path
                id="dot"
                d="M 24 20 C 22.94 20 21.921 20.422 21.172 21.172 C 20.422 21.921 20 22.94 20 24 C 20 25.06 20.422 26.079 21.172 26.828 C 21.921 27.578 22.94 28 24 28 C 25.06 28 26.079 27.578 26.828 26.828 C 27.578 26.079 28 25.06 28 24 C 28 22.94 27.578 21.921 26.828 21.172 C 26.079 20.422 25.06 20 24 20 Z"
                fill="#006590"
                stroke-width="1"/>
        </g>
    </g>
</svg>
